X: 10812
T: Dragonfly, The
R: jig
M: 6/8
K: Dmixolydian
|:Adf d2 d|c2 c BAG|Adf d2 d|g2 g =fed|
Adf d2 d|c2 c BAG|AcA AGE|cGE EDD:|
|:Add Ade|=f2 e dcA|AcA ~A3|G2 G =FED|
Add Ade|g2 g =fed|AcA AGE|cGE EDD:|

